X:1
T:Flaggvise
T:Flaggvise
T:Edvard Grieg
T:Johan Brun
T:C.F. Peters
T:C.F. Peters
T:C.F. Peters
T:C.F. Peters
C:Edvard Grieg
Z:Johan Brun
Z:C.F. Peters
%%score [ ( 1 2 ) 3 4 ( 5 6 ) ]
L:1/8
Q:1/4=144
M:4/4
K:Bb
V:1 treble-8 nm="Tenor 1"
V:2 treble-8 
V:3 treble-8 nm="Tenor 2"
V:4 bass nm="Baryton"
V:5 bass nm="Bass"
V:6 bass 
V:1
"^\n\nAllegro molto vivace e marcato\n"!f! !>!B4 !>!A2 !>!F2 | !>!d2 cA !>!e2 !>!d2 | %2
w: 1.Fram, nord- mænd,|fram un- der flag- get!|
w: 2.Fram, nord- mænd,|fram un- der flag- get!|
w: 3.Fram, nord- mænd,|fram un- der flag- get!|
w: 4.Fram, nord- mænd,|fram un- der flag- get!|
w: 5.Fram, nord- mænd,|fram un- der flag- get!|
 z2 z d !>!d4- | d2 z f !>!f4- | f2 z2 z2!p! F2 | (c2 c)c ((BB)B)B | (e2 e)e e2 e2 |[M:2/4] z2 E2 | %8
w: O- hoj!|* O- hoj!|* Det|ly- * ner blå- hvidt fra Eid-|si- vi- a la- get,|Det|
w: O- hoj!|* O- hoj!|* Det|lå- ner ei frægd * * af|gran- * ner næ- re,|Ut|
w: O- hoj!|* O- hoj!|* Ei|træl- dom- mens sold * * skal|gyld- ne dit mær- ke,|Mot|
w: O- hoj!|* O- hoj!|* Den|djær- * ve sjø- * gut på|Blå- my- ra sei- ler,|Han|
w: O- hoj!|* O- hoj!|* Det|ly- * ner blå- hvidt fra Eid-|si- vi- a la- get,|Det|
[M:4/4] B2 BB A3 A | d3 d d2 d2 |[M:2/4] z2 D2 |[M:4/4]"^ben ten." G4 G2!<(! G2 | d4 d2 ^c2!<)! | %13
w: rød- mer i blod af|Svol- der- sla- get,|det|rin- der af|fri- hed og|
w: vai- er det frit fra|fjeld og fjæ- re.|O|Nor- ge, vor|mor, det er|
w: u- ret og vold med|hæn- der stær- ke|vi|løf- ter din|flam- men- de|
w: ler mot dig op, mens|ha- vet spei- ler|dit|bil- led fra|høj- e- ste|
w: rød- mer i blod af|Svol- der- sla- get,|det|rin- der af|fri- hed og|
!f! =e8- | e4 z2!p! A2 | (^G2 A2) G2"^cresc e rit." A2 |!<(! (^G2 A2) G2 A2!<)! |!f! (f8 | %18
w: mod!|* Det|rin- * der af|fri- * hed og|mod!|
w: dit!|* O|Nor- * ge, vor|mor, * det er|dit!|
w: fold!|* Vi|løf- * ter din|flam- * men- de|fold!|
w: top!|* Dit|bil- * led fra|høj- * e- ste|top!|
w: mod!|* Det|rin- * der af|fri- * hed og|mod!|
!<(! f6) z2!<)! |!ff!"^a tempo" d4 e2!<(! =ee!<)! | !>!g2 !>!f2 z4 | z2 z f !fermata!f4- | %22
w: |Fram, fram un- der|flag- get!|O- hoj!|
w: |Fram, fram un- der|flag- get!|O- hoj!|
w: |Fram, fram un- der|flag- get!|O- hoj!|
w: |Fram, fram un- der|flag- get!|O- hoj!|
w: |Fram, fram un- der|flag- get!|O- hoj!|
 f2 z b b4- | !fermata!b2 z2 z4 :| %24
w: * O- hoj!||
w: * O- hoj!||
w: * O- hoj!||
w: * O- hoj!||
w: * O- hoj!||
V:2
 x8 | x8 | x8 | x8 | x8 | x8 | x8 |[M:2/4] x4 |[M:4/4] x8 | x8 |[M:2/4] x4 |[M:4/4] x8 | x8 | x8 | %14
 x8 | x8 | x8 | x8 | x8 | x8 | x8 | x8 | f2 x f f4- | f2 x2 z4 :| %24
V:3
!f! !>!B4 !>!A2 !>!F2 | !>!d2 cA !>!B2 !>!B2 | z2 z B !>!B4- | B2 z d !>!d4- | d2 z2 z2!p! F2 | %5
w: 1.Fram, nord- mænd,|fram un- der flag- get!|O- hoj!|* O- hoj!|* Det|
w: 2.Fram, nord- mænd,|fram un- der flag- get!|O- hoj!|* O- hoj!|* Det|
w: 3.Fram, nord- mænd,|fram un- der flag- get!|O- hoj!|* O- hoj!|* Ei|
w: 4.Fram, nord- mænd,|fram un- der flag- get!|O- hoj!|* O- hoj!|* Den|
w: 5.Fram, nord- mænd,|fram un- der flag- get!|O- hoj!|* O- hoj!|* Det|
 (A2 A)A ((AA)A)A | (B2 B)B B2 B2 |[M:2/4] z2 E2 |[M:4/4] G2 GG G3 G | A3 A A2 A2 |[M:2/4] z2 D2 | %11
w: ly- * ner blå- hvidt fra Eid-|si- vi- a la- get,|Det|rød- mer i blod af|Svol- der- sla- get,|det|
w: lå- ner ei frægd * * af|gran- * ner næ- re,|Ut|vai- er det frit fra|fjeld og fjæ- re.|O|
w: træl- dom- mens sold * * skal|gyld- ne dit mær- ke,|Mot|u- ret og vold med|hæn- der stær- ke|vi|
w: djær- * ve sjø- * gut på|Blå- my- ra sei- ler,|Han|ler mot dig op, mens|ha- vet spei- ler|dit|
w: ly- * ner blå- hvidt fra Eid-|si- vi- a la- get,|Det|rød- mer i blod af|Svol- der- sla- get,|det|
[M:4/4] F4 F2!<(! F2 | ^G4 G2 A2!<)! |!f! ^c8- | c4 z2!p! A2 | (^G2 A2) G2 A2 | %16
w: rin- der af|fri- hed og|mod!|* Det|rin- * der af|
w: Nor- ge, vor|mor, det er|dit!|* O|Nor- * ge, vor|
w: løf- ter din|flam- men- de|fold!|* Vi|løf- * ter din|
w: bil- led fra|høj- e- ste|top!|* Dit|bil- * led fra|
w: rin- der af|fri- hed og|mod!|* Det|rin- * der af|
!<(! (^G2 A2) G2 A2!<)! |!f! (e8 |!<(! e6) z2!<)! |!ff! B4 c2 ^cc | !>!d2 !>!d2 z4 | %21
w: fri- * hed og|mod!||Fram, fram un- der|flag- get!|
w: mor, * det er|dit!||Fram, fram un- der|flag- get!|
w: flam- * men- de|fold!||Fram, fram un- der|flag- get!|
w: høj- * e- ste|top!||Fram, fram un- der|flag- get!|
w: fri- * hed og|mod!||Fram, fram un- der|flag- get!|
 z2 z e !fermata!e4- | e2 z d d4- | !fermata!d2 z2 z4 :| %24
w: O- hoj!|* O- hoj!||
w: O- hoj!|* O- hoj!||
w: O- hoj!|* O- hoj!||
w: O- hoj!|* O- hoj!||
w: O- hoj!|* O- hoj!||
V:4
!f! !>!B,4 !>!A,2 !>!F,2 | !>!B,2 A,F, !>!G,2 !>!F,2 | z2 z G, !>!G,4- | G,2 z A, !>!A,4- | %4
w: 1.Fram, nord- mænd,|fram un- der flag- get!|O- hoj!|* O- hoj!|
w: 2.Fram, nord- mænd,|fram un- der flag- get!|O- hoj!|* O- hoj!|
w: 3.Fram, nord- mænd,|fram un- der flag- get!|O- hoj!|* O- hoj!|
w: 4.Fram, nord- mænd,|fram un- der flag- get!|O- hoj!|* O- hoj!|
w: 5.Fram, nord- mænd,|fram un- der flag- get!|O- hoj!|* O- hoj!|
 A,2 z2 z2!p! F,2 | (F,2 F,)F, ((F,F,)F,)F, | (G,2 G,)G, G,2 G,2 |[M:2/4] z2 E,2 | %8
w: * Det|ly- * ner blå- hvidt fra Eid-|si- vi- a la- get,|Det|
w: * Det|lå- ner ei frægd * * af|gran- * ner næ- re,|Ut|
w: * Ei|træl- dom- mens sold * * skal|gyld- ne dit mær- ke,|Mot|
w: * Den|djær- * ve sjø- * gut på|Blå- my- ra sei- ler,|Han|
w: * Det|ly- * ner blå- hvidt fra Eid-|si- vi- a la- get,|Det|
[M:4/4] E,2 E,E, E,3 E, | F,3 F, F,2 F,2 |[M:2/4] z2 D,2 |[M:4/4] D,4 D,2!<(! D,2 | %12
w: rød- mer i blod af|Svol- der- sla- get,|det|rin- der af|
w: vai- er det frit fra|fjeld og fjæ- re.|O|Nor- ge, vor|
w: u- ret og vold med|hæn- der stær- ke|vi|løf- ter din|
w: ler mot dig op, mens|ha- vet spei- ler|dit|bil- led fra|
w: rød- mer i blod af|Svol- der- sla- get,|det|rin- der af|
 =E,4 E,2 E,2!<)! |!f! A,8- | A,4 z2!p! A,2 | (^G,2 A,2) G,2 A,2 |!<(! (^G,2 A,2) G,2 A,2!<)! | %17
w: fri- hed og|mod!|* Det|rin- * der af|fri- * hed og|
w: mor, det er|dit!|* O|Nor- * ge, vor|mor, * det er|
w: flam- men- de|fold!|* Vi|løf- * ter din|flam- * men- de|
w: høj- e- ste|top!|* Dit|bil- * led fra|høj- * e- ste|
w: fri- hed og|mod!|* Det|rin- * der af|fri- * hed og|
!f! (C8 |!<(! C6) z2!<)! |!ff! D4 B,2 B,B, | !>!B,2 !>!B,2 z4 | z2 z C !fermata!C4- | %22
w: mod!||Fram, fram un- der|flag- get!|O- hoj!|
w: dit!||Fram, fram un- der|flag- get!|O- hoj!|
w: fold!||Fram, fram un- der|flag- get!|O- hoj!|
w: top!||Fram, fram un- der|flag- get!|O- hoj!|
w: mod!||Fram, fram un- der|flag- get!|O- hoj!|
 C2 z B, B,4- | !fermata!B,2 z2 z4 :| %24
w: * O- hoj!||
w: * O- hoj!||
w: * O- hoj!||
w: * O- hoj!||
w: * O- hoj!||
V:5
!f! !>!B,4 !>!A,2 !>!F,2 | !>!B,2 A,F, !>!B,,2 !>!B,,2 | z2 z G, !>!G,4- | G,2 z D, !>!D,4- | %4
w: 1.Fram, nord- mænd,|fram un- der flag- get!|O- hoj!|* O- hoj!|
w: 2.Fram, nord- mænd,|fram un- der flag- get!|O- hoj!|* O- hoj!|
w: 3.Fram, nord- mænd,|fram un- der flag- get!|O- hoj!|* O- hoj!|
w: 4.Fram, nord- mænd,|fram un- der flag- get!|O- hoj!|* O- hoj!|
w: 5.Fram, nord- mænd,|fram un- der flag- get!|O- hoj!|* O- hoj!|
 D,2 z2 z2!p! F,2 | (E,2 E,)E, ((D,D,)D,)D, | (D,2 D,)D, D,2 D,2 |[M:2/4] z2 E,2 | %8
w: * Det|ly- * ner blå- hvidt fra Eid-|si- vi- a la- get,|Det|
w: * Det|lå- ner ei frægd * * af|gran- * ner næ- re,|Ut|
w: * Ei|træl- dom- mens sold * * skal|gyld- ne dit mær- ke,|Mot|
w: * Den|djær- * ve sjø- * gut på|Blå- my- ra sei- ler,|Han|
w: * Det|ly- * ner blå- hvidt fra Eid-|si- vi- a la- get,|Det|
[M:4/4] D,2 D,D, C,3 C, | C,3 C, C,2 C,2 |[M:2/4] z2 D,2 |[M:4/4] =B,,4 B,,2!<(! B,,2 | %12
w: rød- mer i blod af|Svol- der- sla- get,|det|rin- der af|
w: vai- er det frit fra|fjeld og fjæ- re.|O|Nor- ge, vor|
w: u- ret og vold med|hæn- der stær- ke|vi|løf- ter din|
w: ler mot dig op, mens|ha- vet spei- ler|dit|bil- led fra|
w: rød- mer i blod af|Svol- der- sla- get,|det|rin- der af|
 B,,4 B,,2 A,,2!<)! |!f! A,8- | A,4 z2!p! A,,2 | (^G,,2 A,,2) (G,,2 A,,2) | %16
w: fri- hed og|mod!|* Det|rin- * der af|
w: mor, det er|dit!|* O|Nor- * ge, vor|
w: flam- men- de|fold!|* Vi|løf- * ter din|
w: høj- e- ste|top!|* Dit|bil- * led fra|
w: fri- hed og|mod!|* Det|rin- * der af|
!<(! (^G,,2 A,,2) G,,2 A,,2!<)! |!f! (A,8 |!<(! A,6) z2!<)! |!ff! B,4 G,2 _G,G, | %20
w: fri- * hed og|mod!||Fram, fram un- der|
w: mor, * det er|dit!||Fram, fram un- der|
w: flam- * men- de|fold!||Fram, fram un- der|
w: høj- * e- ste|top!||Fram, fram un- der|
w: fri- * hed og|mod!||Fram, fram un- der|
 !>!F,2 !>!F,2 z4 | z2 z A, !fermata!A,4- | A,2 z F, F,4- | !fermata!F,2 z2 z4 :| %24
w: flag- get!|O- hoj!|* O- hoj!||
w: flag- get!|O- hoj!|* O- hoj!||
w: flag- get!|O- hoj!|* O- hoj!||
w: flag- get!|O- hoj!|* O- hoj!||
w: flag- get!|O- hoj!|* O- hoj!||
V:6
 x8 | x8 | x8 | x8 | x8 | x8 | x8 |[M:2/4] x4 |[M:4/4] x8 | x8 |[M:2/4] x4 |[M:4/4] x8 | x8 | x8 | %14
 x8 | x8 | x8 | x8 | x8 | x8 | x8 | x3 F, F,4- | F,2 x B,, B,,4- | B,,2 x6 :| %24

